;FLAVOR:UltiGCode
;TIME:20681
;MATERIAL:21807
;MATERIAL2:0
;NOZZLE_DIAMETER:0.4
;MINX:46.125
;MINY:104.125
;MINZ:0.27
;MAXX:176.875
;MAXY:121.875
;MAXZ:85.97
;Generated with Cura_SteamEngine 4.8.0
M82 ;absolute extrusion mode
G0 F3000 Y50 ;avoid prime blob
G92 E0
G92 E0
G10
;LAYER_COUNT:858
;LAYER:0
M107
G0 F4320 X50.49 Y104.951 Z0.27
;TYPE:SKIRT
G11
G1 F1800 X51.217 Y104.633 E0.07499
G1 X51.973 Y104.39 E0.15003
G1 X52.749 Y104.225 E0.225
G1 X53.537 Y104.139 E0.29991
G1 X54 Y104.125 E0.34368
G1 X168.864 Y104.125 E11.19833
G1 X169.174 Y104.13 E11.22763
G1 X169.965 Y104.187 E11.30257
G1 X170.747 Y104.324 E11.3776
G1 X171.511 Y104.539 E11.4526
G1 X172.249 Y104.829 E11.52753
G1 X172.954 Y105.193 E11.60251
G1 X173.62 Y105.625 E11.67753
G1 X174.238 Y106.122 E11.75247
G1 X174.803 Y106.679 E11.82745
G1 X175.309 Y107.29 E11.90241
G1 X175.752 Y107.949 E11.97745
G1 X176.125 Y108.649 E12.05241
G1 X176.426 Y109.383 E12.12738
G1 X176.652 Y110.144 E12.2024
G1 X176.801 Y110.923 E12.27735
G1 X176.875 Y112.003 E12.37965
G1 X176.875 Y114 E12.56836
G1 X176.835 Y114.792 E12.6433
G1 X176.716 Y115.577 E12.71833
G1 X176.518 Y116.345 E12.79328
G1 X176.243 Y117.09 E12.86833
G1 X175.896 Y117.803 E12.94326
G1 X175.478 Y118.478 E13.01829
G1 X174.995 Y119.107 E13.09323
G1 X174.45 Y119.684 E13.16824
G1 X173.851 Y120.204 E13.2432
G1 X173.202 Y120.66 E13.31815
G1 X172.51 Y121.049 E13.39317
G1 X171.783 Y121.367 E13.46816
G1 X171.027 Y121.61 E13.5432
G1 X170.251 Y121.775 E13.61817
G1 X169.463 Y121.861 E13.69308
G1 X169 Y121.875 E13.73685
G1 X54 Y121.875 E24.60435
G1 X53.208 Y121.835 E24.67929
G1 X52.423 Y121.716 E24.75432
G1 X51.655 Y121.518 E24.82927
G1 X50.91 Y121.243 E24.90431
G1 X50.197 Y120.896 E24.97925
G1 X49.522 Y120.478 E25.05428
G1 X48.893 Y119.995 E25.12922
G1 X48.316 Y119.45 E25.20422
G1 X47.796 Y118.851 E25.27918
G1 X47.34 Y118.202 E25.35414
G1 X46.951 Y117.51 E25.42916
G1 X46.633 Y116.783 E25.50414
G1 X46.39 Y116.027 E25.57919
G1 X46.225 Y115.251 E25.65416
G1 X46.139 Y114.463 E25.72907
G1 X46.125 Y114 E25.77284
G1 X46.125 Y112 E25.96184
G1 X46.165 Y111.208 E26.03678
G1 X46.284 Y110.423 E26.11181
G1 X46.482 Y109.655 E26.18676
G1 X46.757 Y108.91 E26.2618
G1 X47.104 Y108.197 E26.33674
G1 X47.522 Y107.522 E26.41177
G1 X48.005 Y106.893 E26.48671
G1 X48.55 Y106.316 E26.56171
G1 X49.149 Y105.796 E26.63667
G1 X49.798 Y105.34 E26.71163
G1 X50.49 Y104.951 E26.78665
G0 F4320 X50.819 Y105.181
G1 F1800 X51.538 Y104.889 E26.85998
G1 X52.283 Y104.674 E26.93326
G1 X53.046 Y104.536 E27.00653
G1 X54 Y104.475 E27.09687
G1 X168.864 Y104.475 E37.95152
G1 X169.166 Y104.48 E37.98006
G1 X169.939 Y104.537 E38.0533
G1 X170.703 Y104.673 E38.12664
G1 X171.448 Y104.887 E38.19989
G1 X172.168 Y105.177 E38.27324
G1 X172.854 Y105.54 E38.34658
G1 X173.499 Y105.971 E38.41989
G1 X174.096 Y106.466 E38.49318
G1 X174.639 Y107.02 E38.56648
G1 X175.122 Y107.627 E38.63979
G1 X175.539 Y108.28 E38.71301
G1 X175.888 Y108.973 E38.78633
G1 X176.163 Y109.698 E38.85961
G1 X176.363 Y110.448 E38.93296
G1 X176.484 Y111.214 E39.00624
G1 X176.525 Y112.003 E39.0809
G1 X176.525 Y114 E39.26962
G1 X176.485 Y114.775 E39.34296
G1 X176.366 Y115.541 E39.41621
G1 X176.168 Y116.291 E39.48951
G1 X175.894 Y117.017 E39.56285
G1 X175.547 Y117.71 E39.63608
G1 X175.13 Y118.364 E39.70938
G1 X174.648 Y118.972 E39.7827
G1 X174.106 Y119.527 E39.85601
G1 X173.51 Y120.024 E39.92935
G1 X172.866 Y120.456 E40.00263
G1 X172.181 Y120.819 E40.07589
G1 X171.462 Y121.111 E40.14922
G1 X170.717 Y121.326 E40.2225
G1 X169.954 Y121.464 E40.29577
G1 X169 Y121.525 E40.38611
G1 X54 Y121.525 E51.25361
G1 X53.225 Y121.485 E51.32694
G1 X52.459 Y121.366 E51.4002
G1 X51.709 Y121.168 E51.4735
G1 X50.983 Y120.894 E51.54683
G1 X50.29 Y120.547 E51.62007
G1 X49.636 Y120.13 E51.69337
G1 X49.028 Y119.648 E51.76669
G1 X48.473 Y119.106 E51.84
G1 X47.976 Y118.51 E51.91333
G1 X47.544 Y117.866 E51.98662
G1 X47.181 Y117.181 E52.05988
G1 X46.889 Y116.462 E52.13321
G1 X46.674 Y115.717 E52.20649
G1 X46.536 Y114.954 E52.27976
G1 X46.475 Y114 E52.3701
G1 X46.475 Y112 E52.5591
G1 X46.515 Y111.225 E52.63243
G1 X46.634 Y110.459 E52.70569
G1 X46.832 Y109.709 E52.77899
G1 X47.106 Y108.983 E52.85232
G1 X47.453 Y108.29 E52.92556
G1 X47.87 Y107.636 E52.99886
G1 X48.352 Y107.028 E53.07218
G1 X48.894 Y106.473 E53.14549
G1 X49.49 Y105.976 E53.21882
G1 X50.134 Y105.544 E53.2921
G1 X50.819 Y105.181 E53.36536
G0 F4320 X50.468 Y105.755
G1 F1800 X51.146 Y105.417 E53.43696
G1 X51.855 Y105.153 E53.50845
G1 X52.589 Y104.965 E53.58005
G1 X53.338 Y104.856 E53.65158
G1 X54 Y104.825 E53.71421
G1 X168.864 Y104.825 E64.56885
G1 X169.158 Y104.83 E64.59664
G1 X169.913 Y104.886 E64.66818
G1 X170.659 Y105.022 E64.73984
G1 X171.385 Y105.236 E64.81137
G1 X172.085 Y105.525 E64.88294
G1 X172.751 Y105.886 E64.95452
G1 X173.375 Y106.316 E65.02614
G1 X173.95 Y106.809 E65.09771
G1 X174.47 Y107.359 E65.16924
G1 X174.929 Y107.962 E65.24085
G1 X175.322 Y108.609 E65.31239
G1 X175.644 Y109.294 E65.38392
G1 X175.893 Y110.01 E65.45555
G1 X176.064 Y110.748 E65.52714
G1 X176.157 Y111.499 E65.59865
G1 X176.175 Y112.003 E65.64631
G1 X176.175 Y114 E65.83503
G1 X176.135 Y114.756 E65.90657
G1 X176.016 Y115.504 E65.97815
G1 X175.818 Y116.235 E66.04972
G1 X175.544 Y116.942 E66.12137
G1 X175.198 Y117.615 E66.19288
G1 X174.782 Y118.248 E66.26446
G1 X174.302 Y118.834 E66.33604
G1 X173.763 Y119.366 E66.40761
G1 X173.171 Y119.838 E66.47916
G1 X172.532 Y120.245 E66.55075
G1 X171.854 Y120.583 E66.62234
G1 X171.145 Y120.847 E66.69384
G1 X170.411 Y121.035 E66.76544
G1 X169.662 Y121.144 E66.83697
G1 X169 Y121.175 E66.89959
G1 X54 Y121.175 E77.76709
G1 X53.244 Y121.135 E77.83864
G1 X52.496 Y121.016 E77.91021
G1 X51.765 Y120.818 E77.98178
G1 X51.058 Y120.544 E78.05343
G1 X50.385 Y120.198 E78.12495
G1 X49.752 Y119.782 E78.19653
G1 X49.166 Y119.302 E78.26811
G1 X48.634 Y118.763 E78.33968
G1 X48.162 Y118.171 E78.41122
G1 X47.755 Y117.532 E78.48282
G1 X47.417 Y116.854 E78.55441
G1 X47.153 Y116.145 E78.6259
G1 X46.965 Y115.411 E78.69751
G1 X46.856 Y114.662 E78.76903
G1 X46.825 Y114 E78.83166
G1 X46.825 Y112 E79.02066
G1 X46.865 Y111.244 E79.0922
G1 X46.984 Y110.496 E79.16378
G1 X47.182 Y109.765 E79.23535
G1 X47.456 Y109.058 E79.307
G1 X47.802 Y108.385 E79.37851
G1 X48.218 Y107.752 E79.45009
G1 X48.698 Y107.166 E79.52167
G1 X49.237 Y106.634 E79.59324
G1 X49.829 Y106.162 E79.66479
G1 X50.468 Y105.755 E79.73638
G0 F4320 X50.8 Y105.972
G1 F1800 X51.47 Y105.661 E79.80619
G1 X52.17 Y105.425 E79.876
G1 X52.891 Y105.266 E79.94577
G1 X53.626 Y105.185 E80.01565
G1 X54 Y105.175 E80.051
G1 X168.864 Y105.175 E90.90565
G1 X169.151 Y105.18 E90.93277
G1 X169.887 Y105.236 E91.00253
G1 X170.613 Y105.371 E91.07231
G1 X171.32 Y105.585 E91.14212
G1 X172 Y105.873 E91.2119
G1 X172.645 Y106.233 E91.28171
G1 X173.247 Y106.661 E91.35151
G1 X173.8 Y107.151 E91.42133
G1 X174.296 Y107.698 E91.49111
G1 X174.73 Y108.296 E91.56093
G1 X175.097 Y108.937 E91.63073
G1 X175.393 Y109.614 E91.70056
G1 X175.614 Y110.319 E91.77038
G1 X175.757 Y111.043 E91.84012
G1 X175.825 Y112.003 E91.93106
G1 X175.825 Y114 E92.11978
G1 X175.785 Y114.738 E92.18962
G1 X175.666 Y115.466 E92.25933
G1 X175.468 Y116.178 E92.32917
G1 X175.195 Y116.864 E92.39894
G1 X174.849 Y117.517 E92.46878
G1 X174.435 Y118.129 E92.5386
G1 X173.957 Y118.692 E92.60839
G1 X173.421 Y119.2 E92.67818
G1 X172.833 Y119.647 E92.74798
G1 X172.2 Y120.028 E92.8178
G1 X171.53 Y120.339 E92.8876
G1 X170.83 Y120.575 E92.95741
G1 X170.109 Y120.734 E93.02718
G1 X169.374 Y120.815 E93.09706
G1 X169 Y120.825 E93.13241
G1 X54 Y120.825 E103.99991
G1 X53.262 Y120.785 E104.06976
G1 X52.534 Y120.666 E104.13947
G1 X51.822 Y120.468 E104.2093
G1 X51.136 Y120.195 E104.27908
G1 X50.483 Y119.849 E104.34891
G1 X49.871 Y119.435 E104.41874
G1 X49.308 Y118.957 E104.48853
G1 X48.8 Y118.421 E104.55832
G1 X48.353 Y117.833 E104.62811
G1 X47.972 Y117.2 E104.69793
G1 X47.661 Y116.53 E104.76774
G1 X47.425 Y115.83 E104.83754
G1 X47.266 Y115.109 E104.90732
G1 X47.185 Y114.374 E104.97719
G1 X47.175 Y114 E105.01255
G1 X47.175 Y112 E105.20155
G1 X47.215 Y111.262 E105.27139
G1 X47.334 Y110.534 E105.3411
G1 X47.532 Y109.822 E105.41094
G1 X47.805 Y109.136 E105.48071
G1 X48.151 Y108.483 E105.55055
G1 X48.565 Y107.871 E105.62037
G1 X49.043 Y107.308 E105.69016
G1 X49.579 Y106.8 E105.75995
G1 X50.167 Y106.353 E105.82975
G1 X50.8 Y105.972 E105.89957
G0 F4320 X51.131 Y106.196
G1 F1800 X51.792 Y105.913 E105.96752
G1 X52.481 Y105.706 E106.0355
G1 X53.189 Y105.576 E106.10353
G1 X54 Y105.525 E106.18032
G1 X168.864 Y105.525 E117.03497
G1 X169.143 Y105.53 E117.06134
G1 X169.86 Y105.585 E117.12929
G1 X170.567 Y105.72 E117.19731
G1 X171.254 Y105.933 E117.26528
G1 X171.914 Y106.221 E117.33333
G1 X172.537 Y106.579 E117.40123
G1 X173.117 Y107.005 E117.46924
G1 X173.646 Y107.493 E117.53725
G1 X174.118 Y108.036 E117.60524
G1 X174.526 Y108.628 E117.67318
G1 X174.866 Y109.262 E117.74117
G1 X175.134 Y109.93 E117.80918
G1 X175.326 Y110.623 E117.87714
G1 X175.44 Y111.334 E117.94519
G1 X175.475 Y112.003 E118.00849
G1 X175.475 Y114 E118.19721
G1 X175.435 Y114.718 E118.26517
G1 X175.316 Y115.428 E118.3332
G1 X175.118 Y116.12 E118.40122
G1 X174.845 Y116.785 E118.46915
G1 X174.5 Y117.417 E118.53719
G1 X174.087 Y118.006 E118.60517
G1 X173.611 Y118.545 E118.67313
G1 X173.079 Y119.029 E118.74109
G1 X172.496 Y119.45 E118.80905
G1 X171.869 Y119.804 E118.87709
G1 X171.208 Y120.087 E118.94504
G1 X170.519 Y120.294 E119.01303
G1 X169.811 Y120.424 E119.08105
G1 X169 Y120.475 E119.15784
G1 X54 Y120.475 E130.02534
G1 X53.282 Y120.435 E130.0933
G1 X52.572 Y120.316 E130.16133
G1 X51.88 Y120.118 E130.22935
G1 X51.215 Y119.845 E130.29728
G1 X50.583 Y119.5 E130.36532
G1 X49.994 Y119.087 E130.4333
G1 X49.455 Y118.611 E130.50126
G1 X48.971 Y118.079 E130.56922
G1 X48.55 Y117.496 E130.63718
G1 X48.196 Y116.869 E130.70522
G1 X47.913 Y116.208 E130.77317
G1 X47.706 Y115.519 E130.84116
G1 X47.576 Y114.811 E130.90918
G1 X47.525 Y114 E130.98597
G1 X47.525 Y112 E131.17497
G1 X47.565 Y111.282 E131.24293
G1 X47.684 Y110.572 E131.31096
G1 X47.882 Y109.88 E131.37898
G1 X48.155 Y109.215 E131.44691
G1 X48.5 Y108.583 E131.51495
G1 X48.913 Y107.994 E131.58293
G1 X49.389 Y107.455 E131.65089
G1 X49.921 Y106.971 E131.71885
G1 X50.504 Y106.55 E131.78681
G1 X51.131 Y106.196 E131.85485
G0 F4320 X51.459 Y106.427
G1 F1800 X52.111 Y106.173 E131.92098
G1 X52.788 Y105.996 E131.9871
G1 X53.481 Y105.897 E132.05326
G1 X54 Y105.875 E132.10235
G1 X168.864 Y105.875 E142.95699
G1 X169.135 Y105.879 E142.98261
G1 X169.833 Y105.935 E143.04878
G1 X170.519 Y106.069 E143.11483
G1 X171.186 Y106.281 E143.18097
G1 X171.824 Y106.568 E143.24708
G1 X172.426 Y106.926 E143.31327
G1 X172.983 Y107.35 E143.37942
G1 X173.487 Y107.834 E143.44545
G1 X173.933 Y108.373 E143.51157
G1 X174.315 Y108.959 E143.57767
G1 X174.628 Y109.586 E143.64389
G1 X174.867 Y110.243 E143.70996
G1 X175.029 Y110.924 E143.77611
G1 X175.113 Y111.618 E143.84217
G1 X175.125 Y112.003 E143.87857
G1 X175.125 Y114 E144.06729
G1 X175.085 Y114.699 E144.13345
G1 X174.966 Y115.388 E144.19953
G1 X174.768 Y116.059 E144.26564
G1 X174.496 Y116.704 E144.33179
G1 X174.152 Y117.313 E144.39789
G1 X173.74 Y117.879 E144.46405
G1 X173.267 Y118.394 E144.53012
G1 X172.738 Y118.852 E144.59625
G1 X172.16 Y119.247 E144.66241
G1 X171.541 Y119.573 E144.72852
G1 X170.889 Y119.827 E144.79464
G1 X170.212 Y120.004 E144.86077
G1 X169.519 Y120.103 E144.92692
G1 X169 Y120.125 E144.97601
G1 X54 Y120.125 E155.84351
G1 X53.301 Y120.085 E155.90968
G1 X52.612 Y119.966 E155.97575
G1 X51.941 Y119.768 E156.04186
G1 X51.296 Y119.496 E156.10801
G1 X50.687 Y119.152 E156.17411
G1 X50.121 Y118.74 E156.24027
G1 X49.606 Y118.267 E156.30635
G1 X49.148 Y117.738 E156.37247
G1 X48.753 Y117.16 E156.43863
G1 X48.427 Y116.541 E156.50474
G1 X48.173 Y115.889 E156.57086
G1 X47.996 Y115.212 E156.63699
G1 X47.897 Y114.519 E156.70314
G1 X47.875 Y114 E156.75223
G1 X47.875 Y112 E156.94123
G1 X47.915 Y111.301 E157.0074
G1 X48.034 Y110.612 E157.07347
G1 X48.232 Y109.941 E157.13958
G1 X48.504 Y109.296 E157.20573
G1 X48.848 Y108.687 E157.27183
G1 X49.26 Y108.121 E157.33799
G1 X49.733 Y107.606 E157.40407
G1 X50.262 Y107.148 E157.47019
G1 X50.84 Y106.753 E157.53635
G1 X51.459 Y106.427 E157.60246
G0 F4320 X51.174 Y106.964
G1 F1800 X51.785 Y106.667 E157.66666
G1 X52.427 Y106.443 E157.73092
G1 X53.09 Y106.297 E157.79507
G1 X54 Y106.225 E157.88133
G1 X168.864 Y106.225 E168.73598
G1 X169.127 Y106.229 E168.76084
G1 X169.805 Y106.284 E168.82512
G1 X170.471 Y106.418 E168.88932
G1 X171.116 Y106.63 E168.95348
G1 X171.733 Y106.915 E169.0177
G1 X172.311 Y107.272 E169.0819
G1 X172.844 Y107.693 E169.14609
G1 X173.324 Y108.175 E169.21037
G1 X173.743 Y108.709 E169.27452
G1 X174.097 Y109.289 E169.33873
G1 X174.381 Y109.906 E169.40291
G1 X174.59 Y110.553 E169.46717
G1 X174.722 Y111.219 E169.53133
G1 X174.775 Y112.003 E169.60559
G1 X174.775 Y114 E169.7943
G1 X174.735 Y114.678 E169.85848
G1 X174.616 Y115.347 E169.9227
G1 X174.419 Y115.997 E169.98688
G1 X174.147 Y116.62 E170.05112
G1 X173.803 Y117.206 E170.11533
G1 X173.393 Y117.748 E170.17956
G1 X172.923 Y118.238 E170.24372
G1 X172.398 Y118.669 E170.30791
G1 X171.826 Y119.036 E170.37213
G1 X171.215 Y119.333 E170.43633
G1 X170.573 Y119.557 E170.50059
G1 X169.91 Y119.703 E170.56474
G1 X169 Y119.775 E170.65101
G1 X54 Y119.775 E181.51851
G1 X53.322 Y119.735 E181.58269
G1 X52.653 Y119.616 E181.6469
G1 X52.003 Y119.419 E181.71109
G1 X51.38 Y119.147 E181.77533
G1 X50.794 Y118.803 E181.83954
G1 X50.252 Y118.393 E181.90376
G1 X49.762 Y117.923 E181.96793
G1 X49.331 Y117.398 E182.03211
G1 X48.964 Y116.826 E182.09634
G1 X48.667 Y116.215 E182.16054
G1 X48.443 Y115.573 E182.22479
G1 X48.297 Y114.91 E182.28895
G1 X48.225 Y114 E182.37521
G1 X48.225 Y112 E182.56421
G1 X48.265 Y111.322 E182.62839
G1 X48.384 Y110.653 E182.69261
G1 X48.581 Y110.003 E182.75679
G1 X48.853 Y109.38 E182.82103
G1 X49.197 Y108.794 E182.88524
G1 X49.607 Y108.252 E182.94947
G1 X50.077 Y107.762 E183.01363
G1 X50.602 Y107.331 E183.07782
G1 X51.174 Y106.964 E183.14204
G0 F4320 X51.506 Y107.182
G1 F1800 X52.108 Y106.916 E183.20424
G1 X52.738 Y106.724 E183.26648
G1 X53.386 Y106.61 E183.32865
G1 X54 Y106.575 E183.38677
G1 X168.864 Y106.575 E194.24142
G1 X169.12 Y106.579 E194.26561
G1 X169.776 Y106.634 E194.32782
G1 X170.421 Y106.767 E194.39006
G1 X171.045 Y106.978 E194.45231
G1 X171.638 Y107.263 E194.51448
G1 X172.193 Y107.617 E194.57669
G1 X172.701 Y108.036 E194.63892
G1 X173.154 Y108.514 E194.70115
G1 X173.546 Y109.043 E194.76337
G1 X173.872 Y109.616 E194.82567
G1 X174.125 Y110.224 E194.8879
G1 X174.303 Y110.858 E194.95013
G1 X174.402 Y111.508 E195.01226
G1 X174.425 Y112.003 E195.05909
G1 X174.425 Y114 E195.24781
G1 X174.385 Y114.657 E195.31001
G1 X174.266 Y115.305 E195.37227
G1 X174.069 Y115.933 E195.43447
G1 X173.797 Y116.533 E195.49672
G1 X173.455 Y117.096 E195.55897
G1 X173.047 Y117.613 E195.62121
G1 X172.58 Y118.076 E195.68335
G1 X172.059 Y118.48 E195.74566
G1 X171.494 Y118.818 E195.80787
G1 X170.892 Y119.084 E195.87007
G1 X170.262 Y119.276 E195.93231
G1 X169.614 Y119.39 E195.99448
G1 X169 Y119.425 E196.0526
G1 X54 Y119.425 E206.9201
G1 X53.343 Y119.385 E206.9823
G1 X52.695 Y119.266 E207.04456
G1 X52.067 Y119.069 E207.10676
G1 X51.467 Y118.797 E207.16901
G1 X50.904 Y118.455 E207.23126
G1 X50.387 Y118.047 E207.2935
G1 X49.924 Y117.58 E207.35565
G1 X49.52 Y117.059 E207.41795
G1 X49.182 Y116.494 E207.48017
G1 X48.916 Y115.892 E207.54236
G1 X48.724 Y115.262 E207.6046
G1 X48.61 Y114.614 E207.66678
G1 X48.575 Y114 E207.72489
G1 X48.575 Y112 E207.91389
G1 X48.615 Y111.343 E207.97609
G1 X48.734 Y110.695 E208.03835
G1 X48.931 Y110.067 E208.10055
G1 X49.203 Y109.467 E208.16281
G1 X49.545 Y108.904 E208.22506
G1 X49.953 Y108.387 E208.28729
G1 X50.42 Y107.924 E208.34944
G1 X50.941 Y107.52 E208.41174
G1 X51.506 Y107.182 E208.47396
G0 F4320 X51.835 Y107.41
G1 F1800 X52.427 Y107.175 E208.53415
G1 X53.044 Y107.016 E208.59436
G1 X53.676 Y106.935 E208.65457
G1 X54 Y106.925 E208.68521
G1 X168.864 Y106.925 E219.53985
G1 X169.112 Y106.929 E219.56329
G1 X169.746 Y106.983 E219.62342
G1 X170.369 Y107.116 E219.68362
G1 X170.971 Y107.326 E219.74387
