;FLAVOR:UltiGCode
;TIME:57098
;MATERIAL:56743
;MATERIAL2:0
;NOZZLE_DIAMETER:0.4
;MINX:48.2
;MINY:78.625
;MINZ:0.27
;MAXX:182.875
;MAXY:144.375
;MAXZ:85.97
;Generated with Cura_SteamEngine 4.8.0
M82 ;absolute extrusion mode
G0 F3000 Y50 ;avoid prime blob
G92 E0
G92 E0
G10
;LAYER_COUNT:858
;LAYER:0
M107
G0 F4320 X55.798 Y79.84 Z0.27
;TYPE:SKIRT
G11
G1 F1800 X56.49 Y79.451 E0.07502
G1 X57.217 Y79.133 E0.15
G1 X57.973 Y78.89 E0.22505
G1 X58.749 Y78.725 E0.30002
G1 X59.537 Y78.639 E0.37493
G1 X60 Y78.625 E0.4187
G1 X175 Y78.625 E11.2862
G1 X175.792 Y78.665 E11.36114
G1 X176.577 Y78.784 E11.43617
G1 X177.345 Y78.982 E11.51112
G1 X178.09 Y79.257 E11.58616
G1 X178.803 Y79.604 E11.6611
G1 X179.478 Y80.022 E11.73613
G1 X180.107 Y80.505 E11.81107
G1 X180.684 Y81.05 E11.88607
G1 X181.204 Y81.649 E11.96103
G1 X181.66 Y82.298 E12.03599
G1 X182.049 Y82.99 E12.11101
G1 X182.367 Y83.717 E12.18599
G1 X182.61 Y84.473 E12.26103
G1 X182.775 Y85.249 E12.33601
G1 X182.861 Y86.037 E12.41091
G1 X182.875 Y86.5 E12.45469
G1 X182.875 Y136.5 E17.17969
G1 X182.835 Y137.292 E17.25463
G1 X182.716 Y138.077 E17.32966
G1 X182.518 Y138.845 E17.40461
G1 X182.243 Y139.59 E17.47965
G1 X181.896 Y140.303 E17.55459
G1 X181.478 Y140.978 E17.62961
G1 X180.995 Y141.607 E17.70456
G1 X180.45 Y142.184 E17.77956
G1 X179.851 Y142.704 E17.85452
G1 X179.202 Y143.16 E17.92948
G1 X178.51 Y143.549 E18.0045
G1 X177.783 Y143.867 E18.07948
G1 X177.027 Y144.11 E18.15452
G1 X176.251 Y144.275 E18.22949
G1 X175.463 Y144.361 E18.3044
G1 X175 Y144.375 E18.34818
G1 X60 Y144.375 E29.21568
G1 X59.208 Y144.335 E29.29062
G1 X58.423 Y144.216 E29.36565
G1 X57.655 Y144.018 E29.4406
G1 X56.91 Y143.743 E29.51564
G1 X56.197 Y143.396 E29.59058
G1 X55.522 Y142.978 E29.6656
G1 X54.893 Y142.495 E29.74055
G1 X54.316 Y141.95 E29.81555
G1 X53.796 Y141.351 E29.89051
G1 X53.34 Y140.702 E29.96547
G1 X52.951 Y140.01 E30.04048
G1 X52.633 Y139.283 E30.11547
G1 X52.39 Y138.527 E30.19051
G1 X52.225 Y137.751 E30.26548
G1 X52.139 Y136.963 E30.34039
G1 X52.125 Y136.5 E30.38416
G1 X52.125 Y86.5 E35.10916
G1 X52.165 Y85.708 E35.1841
G1 X52.284 Y84.923 E35.25913
G1 X52.482 Y84.155 E35.33408
G1 X52.757 Y83.41 E35.40913
G1 X53.104 Y82.697 E35.48406
G1 X53.522 Y82.022 E35.55909
G1 X54.005 Y81.393 E35.63403
G1 X54.55 Y80.816 E35.70904
G1 X55.149 Y80.296 E35.784
G1 X55.798 Y79.84 E35.85895
G0 F4320 X56.134 Y80.044
G1 F1800 X56.819 Y79.681 E35.93221
G1 X57.538 Y79.389 E36.00555
G1 X58.283 Y79.174 E36.07882
G1 X59.046 Y79.036 E36.1521
G1 X60 Y78.975 E36.24244
G1 X175 Y78.975 E47.10994
G1 X175.775 Y79.015 E47.18327
G1 X176.541 Y79.134 E47.25653
G1 X177.291 Y79.332 E47.32983
G1 X178.017 Y79.606 E47.40316
G1 X178.71 Y79.953 E47.4764
G1 X179.364 Y80.37 E47.5497
G1 X179.972 Y80.852 E47.62302
G1 X180.527 Y81.394 E47.69632
G1 X181.024 Y81.99 E47.76966
G1 X181.456 Y82.634 E47.84294
G1 X181.819 Y83.319 E47.9162
G1 X182.111 Y84.038 E47.98954
G1 X182.326 Y84.783 E48.06281
G1 X182.464 Y85.546 E48.13609
G1 X182.525 Y86.5 E48.22642
G1 X182.525 Y136.5 E52.95142
G1 X182.485 Y137.275 E53.02476
G1 X182.366 Y138.041 E53.09801
G1 X182.168 Y138.791 E53.17132
G1 X181.894 Y139.517 E53.24465
G1 X181.547 Y140.21 E53.31789
G1 X181.13 Y140.864 E53.39118
G1 X180.648 Y141.472 E53.4645
G1 X180.106 Y142.027 E53.53781
G1 X179.51 Y142.524 E53.61115
G1 X178.866 Y142.956 E53.68443
G1 X178.181 Y143.319 E53.75769
G1 X177.462 Y143.611 E53.83103
G1 X176.717 Y143.826 E53.9043
G1 X175.954 Y143.964 E53.97757
G1 X175 Y144.025 E54.06791
G1 X60 Y144.025 E64.93541
G1 X59.225 Y143.985 E65.00875
G1 X58.459 Y143.866 E65.082
G1 X57.709 Y143.668 E65.1553
G1 X56.983 Y143.394 E65.22864
G1 X56.29 Y143.047 E65.30187
G1 X55.636 Y142.63 E65.37517
G1 X55.028 Y142.148 E65.44849
G1 X54.473 Y141.606 E65.5218
G1 X53.976 Y141.01 E65.59514
G1 X53.544 Y140.366 E65.66842
G1 X53.181 Y139.681 E65.74168
G1 X52.889 Y138.962 E65.81501
G1 X52.674 Y138.217 E65.88829
G1 X52.536 Y137.454 E65.96156
G1 X52.475 Y136.5 E66.0519
G1 X52.475 Y86.5 E70.7769
G1 X52.515 Y85.725 E70.85023
G1 X52.634 Y84.959 E70.92349
G1 X52.832 Y84.209 E70.99679
G1 X53.106 Y83.483 E71.07012
G1 X53.453 Y82.79 E71.14336
G1 X53.87 Y82.136 E71.21666
G1 X54.352 Y81.528 E71.28998
G1 X54.894 Y80.973 E71.36329
G1 X55.49 Y80.476 E71.43662
G1 X56.134 Y80.044 E71.50991
G0 F4320 X56.468 Y80.255
G1 F1800 X57.146 Y79.917 E71.5815
G1 X57.855 Y79.653 E71.65299
G1 X58.589 Y79.465 E71.72459
G1 X59.338 Y79.356 E71.79612
G1 X60 Y79.325 E71.85875
G1 X175 Y79.325 E82.72625
G1 X175.756 Y79.365 E82.79779
G1 X176.504 Y79.484 E82.86937
G1 X177.235 Y79.682 E82.94093
G1 X177.942 Y79.956 E83.01259
G1 X178.615 Y80.302 E83.0841
G1 X179.248 Y80.718 E83.15568
G1 X179.834 Y81.198 E83.22726
G1 X180.366 Y81.737 E83.29883
G1 X180.838 Y82.329 E83.37038
G1 X181.245 Y82.968 E83.44197
G1 X181.583 Y83.646 E83.51356
G1 X181.847 Y84.355 E83.58506
G1 X182.035 Y85.089 E83.65666
G1 X182.144 Y85.838 E83.72819
G1 X182.175 Y86.5 E83.79081
G1 X182.175 Y136.5 E88.51581
G1 X182.135 Y137.256 E88.58736
G1 X182.016 Y138.004 E88.65893
G1 X181.818 Y138.735 E88.7305
G1 X181.544 Y139.442 E88.80215
G1 X181.198 Y140.115 E88.87366
G1 X180.782 Y140.748 E88.94524
G1 X180.302 Y141.334 E89.01683
G1 X179.763 Y141.866 E89.08839
G1 X179.171 Y142.338 E89.15994
G1 X178.532 Y142.745 E89.23154
G1 X177.854 Y143.083 E89.30313
G1 X177.145 Y143.347 E89.37462
G1 X176.411 Y143.535 E89.44623
G1 X175.662 Y143.644 E89.51775
G1 X175 Y143.675 E89.58038
G1 X60 Y143.675 E100.44788
G1 X59.244 Y143.635 E100.51942
G1 X58.496 Y143.516 E100.591
G1 X57.765 Y143.318 E100.66256
G1 X57.058 Y143.044 E100.73422
G1 X56.385 Y142.698 E100.80573
G1 X55.752 Y142.282 E100.87731
G1 X55.166 Y141.802 E100.94889
G1 X54.634 Y141.263 E101.02046
G1 X54.162 Y140.671 E101.09201
G1 X53.755 Y140.032 E101.1636
G1 X53.417 Y139.354 E101.23519
G1 X53.153 Y138.645 E101.30669
G1 X52.965 Y137.911 E101.37829
G1 X52.856 Y137.162 E101.44982
G1 X52.825 Y136.5 E101.51244
G1 X52.825 Y86.5 E106.23744
G1 X52.865 Y85.744 E106.30899
G1 X52.984 Y84.996 E106.38056
G1 X53.182 Y84.265 E106.45213
G1 X53.456 Y83.558 E106.52378
G1 X53.802 Y82.885 E106.59529
G1 X54.218 Y82.252 E106.66687
G1 X54.698 Y81.666 E106.73846
G1 X55.237 Y81.134 E106.81002
G1 X55.829 Y80.662 E106.88157
G1 X56.468 Y80.255 E106.95317
G0 F4320 X56.167 Y80.853
G1 F1800 X56.8 Y80.472 E107.02299
G1 X57.47 Y80.161 E107.09279
G1 X58.17 Y79.925 E107.1626
G1 X58.891 Y79.766 E107.23237
G1 X59.626 Y79.685 E107.30225
G1 X60 Y79.675 E107.3376
G1 X175 Y79.675 E118.2051
G1 X175.738 Y79.715 E118.27495
G1 X176.466 Y79.834 E118.34466
G1 X177.178 Y80.032 E118.41449
G1 X177.864 Y80.305 E118.48426
G1 X178.517 Y80.651 E118.5541
G1 X179.129 Y81.065 E118.62392
G1 X179.692 Y81.543 E118.69372
G1 X180.2 Y82.079 E118.7635
G1 X180.647 Y82.667 E118.8333
G1 X181.028 Y83.3 E118.90312
G1 X181.339 Y83.97 E118.97292
G1 X181.575 Y84.67 E119.04273
G1 X181.734 Y85.391 E119.1125
G1 X181.815 Y86.126 E119.18238
G1 X181.825 Y86.5 E119.21774
G1 X181.825 Y136.5 E123.94274
G1 X181.785 Y137.238 E124.01258
G1 X181.666 Y137.966 E124.08229
G1 X181.468 Y138.678 E124.15213
G1 X181.195 Y139.364 E124.2219
G1 X180.849 Y140.017 E124.29174
G1 X180.435 Y140.629 E124.36156
G1 X179.957 Y141.192 E124.43135
G1 X179.421 Y141.7 E124.50114
G1 X178.833 Y142.147 E124.57094
G1 X178.2 Y142.528 E124.64076
G1 X177.53 Y142.839 E124.71056
G1 X176.83 Y143.075 E124.78037
G1 X176.109 Y143.234 E124.85014
G1 X175.374 Y143.315 E124.92002
G1 X175 Y143.325 E124.95537
G1 X60 Y143.325 E135.82287
G1 X59.262 Y143.285 E135.89272
G1 X58.534 Y143.166 E135.96243
G1 X57.822 Y142.968 E136.03226
G1 X57.136 Y142.695 E136.10203
G1 X56.483 Y142.349 E136.17187
G1 X55.871 Y141.935 E136.24169
G1 X55.308 Y141.457 E136.31149
G1 X54.8 Y140.921 E136.38127
G1 X54.353 Y140.333 E136.45107
G1 X53.972 Y139.7 E136.52089
G1 X53.661 Y139.03 E136.59069
G1 X53.425 Y138.33 E136.6605
G1 X53.266 Y137.609 E136.73027
G1 X53.185 Y136.874 E136.80015
G1 X53.175 Y136.5 E136.83551
G1 X53.175 Y86.5 E141.56051
G1 X53.215 Y85.762 E141.63035
G1 X53.334 Y85.034 E141.70006
G1 X53.532 Y84.322 E141.7699
G1 X53.805 Y83.636 E141.83967
G1 X54.151 Y82.983 E141.90951
G1 X54.565 Y82.371 E141.97933
G1 X55.043 Y81.808 E142.04912
G1 X55.579 Y81.3 E142.11891
G1 X56.167 Y80.853 E142.18871
G0 F4320 X56.504 Y81.05
G1 F1800 X57.131 Y80.696 E142.25675
G1 X57.792 Y80.413 E142.3247
G1 X58.481 Y80.206 E142.39269
G1 X59.189 Y80.076 E142.46071
G1 X60 Y80.025 E142.5375
G1 X175 Y80.025 E153.405
G1 X175.718 Y80.065 E153.47296
G1 X176.428 Y80.184 E153.54099
G1 X177.12 Y80.382 E153.60901
G1 X177.785 Y80.655 E153.67694
G1 X178.417 Y81 E153.74498
G1 X179.006 Y81.413 E153.81296
G1 X179.545 Y81.889 E153.88092
G1 X180.029 Y82.421 E153.94888
G1 X180.45 Y83.004 E154.01684
G1 X180.804 Y83.631 E154.08488
G1 X181.087 Y84.292 E154.15283
G1 X181.294 Y84.981 E154.22082
G1 X181.424 Y85.689 E154.28884
G1 X181.475 Y86.5 E154.36563
G1 X181.475 Y136.5 E159.09063
G1 X181.435 Y137.218 E159.15859
G1 X181.316 Y137.928 E159.22662
G1 X181.118 Y138.62 E159.29464
G1 X180.845 Y139.285 E159.36257
G1 X180.5 Y139.917 E159.43061
G1 X180.087 Y140.506 E159.49859
G1 X179.611 Y141.045 E159.56655
G1 X179.079 Y141.529 E159.63451
G1 X178.496 Y141.95 E159.70247
G1 X177.869 Y142.304 E159.77051
G1 X177.208 Y142.587 E159.83846
G1 X176.519 Y142.794 E159.90645
G1 X175.811 Y142.924 E159.97447
G1 X175 Y142.975 E160.05126
G1 X60 Y142.975 E170.91876
G1 X59.282 Y142.935 E170.98672
G1 X58.572 Y142.816 E171.05475
G1 X57.88 Y142.618 E171.12277
G1 X57.215 Y142.345 E171.1907
G1 X56.583 Y142 E171.25874
G1 X55.994 Y141.587 E171.32672
G1 X55.455 Y141.111 E171.39468
G1 X54.971 Y140.579 E171.46264
G1 X54.55 Y139.996 E171.5306
G1 X54.196 Y139.369 E171.59864
G1 X53.913 Y138.708 E171.66659
G1 X53.706 Y138.019 E171.73458
G1 X53.576 Y137.311 E171.8026
G1 X53.525 Y136.5 E171.87939
G1 X53.525 Y86.5 E176.60439
G1 X53.565 Y85.782 E176.67235
G1 X53.684 Y85.072 E176.74038
G1 X53.882 Y84.38 E176.8084
G1 X54.155 Y83.715 E176.87633
G1 X54.5 Y83.083 E176.94437
G1 X54.913 Y82.494 E177.01235
G1 X55.389 Y81.955 E177.08031
G1 X55.921 Y81.471 E177.14827
G1 X56.504 Y81.05 E177.21623
G0 F4320 X56.84 Y81.253
G1 F1800 X57.459 Y80.927 E177.28234
G1 X58.111 Y80.673 E177.34847
G1 X58.788 Y80.496 E177.41459
G1 X59.481 Y80.397 E177.48075
G1 X60 Y80.375 E177.52984
G1 X175 Y80.375 E188.39734
G1 X175.699 Y80.415 E188.4635
G1 X176.388 Y80.534 E188.52958
G1 X177.059 Y80.732 E188.59569
G1 X177.704 Y81.004 E188.66184
G1 X178.313 Y81.348 E188.72794
G1 X178.879 Y81.76 E188.79409
G1 X179.394 Y82.233 E188.86017
G1 X179.852 Y82.762 E188.9263
G1 X180.247 Y83.34 E188.99245
G1 X180.573 Y83.959 E189.05856
G1 X180.827 Y84.611 E189.12469
G1 X181.004 Y85.288 E189.19082
G1 X181.103 Y85.981 E189.25697
G1 X181.125 Y86.5 E189.30606
G1 X181.125 Y136.5 E194.03106
G1 X181.085 Y137.199 E194.09722
G1 X180.966 Y137.888 E194.1633
G1 X180.768 Y138.559 E194.22941
G1 X180.496 Y139.204 E194.29556
G1 X180.152 Y139.813 E194.36166
G1 X179.74 Y140.379 E194.42781
G1 X179.267 Y140.894 E194.49389
G1 X178.738 Y141.352 E194.56002
G1 X178.16 Y141.747 E194.62617
G1 X177.541 Y142.073 E194.69229
G1 X176.889 Y142.327 E194.75841
G1 X176.212 Y142.504 E194.82454
G1 X175.519 Y142.603 E194.89069
G1 X175 Y142.625 E194.93978
G1 X60 Y142.625 E205.80728
G1 X59.301 Y142.585 E205.87344
G1 X58.612 Y142.466 E205.93952
G1 X57.941 Y142.268 E206.00563
G1 X57.296 Y141.996 E206.07178
G1 X56.687 Y141.652 E206.13788
G1 X56.121 Y141.24 E206.20404
G1 X55.606 Y140.767 E206.27011
G1 X55.148 Y140.238 E206.33624
G1 X54.753 Y139.66 E206.4024
G1 X54.427 Y139.041 E206.46851
G1 X54.173 Y138.389 E206.53463
G1 X53.996 Y137.712 E206.60076
G1 X53.897 Y137.019 E206.66691
G1 X53.875 Y136.5 E206.716
G1 X53.875 Y86.5 E211.441
G1 X53.915 Y85.801 E211.50716
G1 X54.034 Y85.112 E211.57324
G1 X54.232 Y84.441 E211.63935
G1 X54.504 Y83.796 E211.7055
G1 X54.848 Y83.187 E211.7716
G1 X55.26 Y82.621 E211.83776
G1 X55.733 Y82.106 E211.90384
G1 X56.262 Y81.648 E211.96996
G1 X56.84 Y81.253 E212.03612
G0 F4320 X57.174 Y81.464
G1 F1800 X57.785 Y81.167 E212.10032
G1 X58.427 Y80.943 E212.16457
G1 X59.09 Y80.797 E212.22873
G1 X60 Y80.725 E212.31499
G1 X175 Y80.725 E223.18249
G1 X175.678 Y80.765 E223.24667
G1 X176.347 Y80.884 E223.31089
G1 X176.997 Y81.081 E223.37507
G1 X177.62 Y81.353 E223.43931
G1 X178.206 Y81.697 E223.50352
G1 X178.748 Y82.107 E223.56775
G1 X179.238 Y82.577 E223.63191
G1 X179.669 Y83.102 E223.6961
G1 X180.036 Y83.674 E223.76032
G1 X180.333 Y84.285 E223.82452
G1 X180.557 Y84.927 E223.88878
G1 X180.703 Y85.59 E223.95293
G1 X180.775 Y86.5 E224.0392
G1 X180.775 Y136.5 E228.7642
G1 X180.735 Y137.178 E228.82838
G1 X180.616 Y137.847 E228.89259
G1 X180.419 Y138.497 E228.95677
G1 X180.147 Y139.12 E229.02101
G1 X179.803 Y139.706 E229.08523
G1 X179.393 Y140.248 E229.14945
G1 X178.923 Y140.738 E229.21361
G1 X178.398 Y141.169 E229.2778
G1 X177.826 Y141.536 E229.34203
G1 X177.215 Y141.833 E229.40623
G1 X176.573 Y142.057 E229.47048
G1 X175.91 Y142.203 E229.53464
G1 X175 Y142.275 E229.6209
G1 X60 Y142.275 E240.4884
G1 X59.322 Y142.235 E240.55258
G1 X58.653 Y142.116 E240.6168
G1 X58.003 Y141.919 E240.68098
G1 X57.38 Y141.647 E240.74522
G1 X56.794 Y141.303 E240.80943
G1 X56.252 Y140.893 E240.87366
G1 X55.762 Y140.423 E240.93782
G1 X55.331 Y139.898 E241.00201
G1 X54.964 Y139.326 E241.06623
G1 X54.667 Y138.715 E241.13043
G1 X54.443 Y138.073 E241.19469
G1 X54.297 Y137.41 E241.25884
G1 X54.225 Y136.5 E241.34511
G1 X54.225 Y86.5 E246.07011
G1 X54.265 Y85.822 E246.13429
G1 X54.384 Y85.153 E246.1985
G1 X54.581 Y84.503 E246.26268
G1 X54.853 Y83.88 E246.32692
G1 X55.197 Y83.294 E246.39114
G1 X55.607 Y82.752 E246.45536
G1 X56.077 Y82.262 E246.51952
G1 X56.602 Y81.831 E246.58371
G1 X57.174 Y81.464 E246.64794
G0 F4320 X56.941 Y82.02
G1 F1800 X57.506 Y81.682 E246.71015
G1 X58.108 Y81.416 E246.77235
G1 X58.738 Y81.224 E246.83459
G1 X59.386 Y81.11 E246.89676
G1 X60 Y81.075 E246.95488
G1 X175 Y81.075 E257.82238
G1 X175.657 Y81.115 E257.88458
G1 X176.305 Y81.234 E257.94684
G1 X176.933 Y81.431 E258.00904
G1 X177.533 Y81.703 E258.07129
G1 X178.096 Y82.045 E258.13354
G1 X178.613 Y82.453 E258.19578
G1 X179.076 Y82.92 E258.25793
G1 X179.48 Y83.441 E258.32023
G1 X179.818 Y84.006 E258.38245
G1 X180.084 Y84.608 E258.44464
G1 X180.276 Y85.238 E258.50688
G1 X180.39 Y85.886 E258.56906
G1 X180.425 Y86.5 E258.62717
G1 X180.425 Y136.5 E263.35217
G1 X180.385 Y137.157 E263.41438
G1 X180.266 Y137.805 E263.47664
G1 X180.069 Y138.433 E263.53883
G1 X179.797 Y139.033 E263.60109
G1 X179.455 Y139.596 E263.66334
G1 X179.047 Y140.113 E263.72558
G1 X178.58 Y140.576 E263.78772
G1 X178.059 Y140.98 E263.85002
G1 X177.494 Y141.318 E263.91224
G1 X176.892 Y141.584 E263.97443
G1 X176.262 Y141.776 E264.03667
G1 X175.614 Y141.89 E264.09885
G1 X175 Y141.925 E264.15697
G1 X60 Y141.925 E275.02447
G1 X59.343 Y141.885 E275.08667
G1 X58.695 Y141.766 E275.14893
G1 X58.067 Y141.569 E275.21113
G1 X57.467 Y141.297 E275.27338
G1 X56.904 Y140.955 E275.33563
G1 X56.387 Y140.547 E275.39787
G1 X55.924 Y140.08 E275.46001
G1 X55.52 Y139.559 E275.52231
G1 X55.182 Y138.994 E275.58453
G1 X54.916 Y138.392 E275.64673
G1 X54.724 Y137.762 E275.70897
G1 X54.61 Y137.114 E275.77114
G1 X54.575 Y136.5 E275.82926
G1 X54.575 Y86.5 E280.55426
G1 X54.615 Y85.843 E280.61646
G1 X54.734 Y85.195 E280.67872
G1 X54.931 Y84.567 E280.74092
G1 X55.203 Y83.967 E280.80317
G1 X55.545 Y83.404 E280.86542
G1 X55.953 Y82.887 E280.92766
G1 X56.42 Y82.424 E280.98981
G1 X56.941 Y82.02 E281.05211
G0 F4320 X57.278 Y82.217
G1 F1800 X57.835 Y81.91 E281.11221
G1 X58.427 Y81.675 E281.1724
G1 X59.044 Y81.516 E281.23261
G1 X59.676 Y81.435 E281.29282
G1 X60 Y81.425 E281.32346
G1 X175 Y81.425 E292.19096
G1 X175.636 Y81.465 E292.25118
G1 X176.261 Y81.584 E292.3113
G1 X176.867 Y81.781 E292.37152
G1 X177.443 Y82.052 E292.43167
G1 X177.981 Y82.393 E292.49187
G1 X178.472 Y82.799 E292.55207
G1 X178.908 Y83.263 E292.61224
G1 X179.283 Y83.778 E292.67245
G1 X179.59 Y84.335 E292.73255
G1 X179.825 Y84.927 E292.79274
G1 X179.984 Y85.544 E292.85295
G1 X180.065 Y86.176 E292.91316
G1 X180.075 Y86.5 E292.94379
G1 X180.075 Y136.5 E297.66879
G1 X180.035 Y137.136 E297.72902
G1 X179.916 Y137.761 E297.78914
